X:2608
L:1/8
M:3/4
K:G
 d4 ec | d2 g2 c2 |{c} B2 A2 G2 |{G} TF2 EF D2 | D2 .d.d.d.d |{e} d2 Tc2 B2 | D2 .d.d.d.d | 
 (d2 Tc2 B2) | (3(edc) B2 A2 | G6 :: B2 GAB^c | (d^cd)efd | gf e2 d2 | ^c2 Bc A2 | A2 .a.a.a.a | 
 a2 g2 Tf2 | A2 .a.a.a.a | (a2 Tg2) f2 | (3bag f2 e2 | d2 D4 | d3 dbd |{d} (c2 B2) A2 | d2 cBAG | 
{G} F2 EF D2 | D2 .d.d.d.d | (d2 Tc2) B2 | D2 .d.d.d.d | (d2 Tc2) B2 | (3(edc) B2 TA2 | G6 :|

